!!!COM: Haydn, Franz Joseph
!!!OTL: String Quartet in G Major
!!!OPS: Opus 76
!!!ONM: No. 1
!!!OMD: Allegro con spirito
!!!OMV: 1
!!!SCT: H III:75
!!!SCA: Thematisch-bibliographisches Werkevererzeichnis (A. van Hoboken)
!!!YOR: Trautwein Edition
!!!ENC: Frances Bennion
!!!CDT: 1732/3/31/-1809/5/31/
!!!CNT: Oesterreich
!!!YEC: Copyright (c) 1994, 2000 Center for Computer Assisted Research in the Humanities
!!!YEM: Rights to all derivative editions reserved.
!!!YEM: Refer to licensing agreement for further details.
!!!YEN: United States of America
**harm	**chord	**kern	**kern	**kern	**kern
*k[f#]	*k[f#]	*k[f#]	*k[f#]	*k[f#]	*k[f#]
*	*	*G:	*G:	*G:	*G:
*	*	*clefF4	*clefC3	*clefF	*clefF
*M2/2	*M2/2	*M2/2	*M2/2	*M2/2	*M2/2
*G:	*G:	*	*	*	*
I	G	4G	4d 4b	4gg 4b 4d	4gg 4b 4d
.	.	4r	4r	4r	4r
V7	D7	4D	4d 4cc	4ff# 4d 4a	4aa 4dd 4d
.	.	4r	4r	4r	4r
=2	=2	=2	=2	=2	=2
I	G	4GG	4d 4b	4gg 4b 4d	4dd 4bb 4d
.	.	2r	4r	4r	4r
.	.	.	4r	4r	4r
.	.	4d	4r	4r	4r
=3	=3	=3	=3	=3	=3
I	G	4B	1r	1r	1r
.	.	4G	.	.	.
.	.	4c	.	.	.
.	.	4A	.	.	.
=4	=4	=4	=4	=4	=4
ii	Am	4F#	1r	1r	1r
.	.	8A	.	.	.
.	.	8F#	.	.	.
V	D	4D	.	.	.
.	.	8E	.	.	.
.	.	8F#	.	.	.
=5	=5	=5	=5	=5	=5
vii	Em	4G	1r	1r	1r
.	.	4E	.	.	.
II	A	4BB	.	.	.
.	.	4C#	.	.	.
=6	=6	=6	=6	=6	=6
V	D	2D	2.r	1r	1r
.	.	4d	.	.	.
.	.	4r	4e	.	.
=7	=7	=7	=7	=7	=7
ii	Am	1r	4c	1r	1r
.	.	.	4A	.	.
iii	Bm	.	4d	.	.
.	.	.	4B	.	.
=8	=8	=8	=8	=8	=8
IV	E	1r	4G#	1r	1r
.	.	.	8B	.	.
.	.	.	8G#	.	.
.	.	.	4E	.	.
.	.	.	8F#	.	.
.	.	.	8G#	.	.
=9	=9	=9	=9	=9	=9
ii	Am	1r	4A	1r	1r
.	.	.	4c	.	.
V	D	.	4D	.	.
.	.	.	4F#	.	.
=10	=10	=10	=10	=10	=10
I	G	2.r	2G	2.r	1r
.	.	.	4g	.	.
.	.	4F#	4r	4dd	.
=11	=11	=11	=11	=11	=11
I	G	4G	1r	4b	1r
.	.	4B	.	4g	.
ii	Am	4A	.	4cc	.
.	.	4c	.	4a	.
=12	=12	=12	=12	=12	=12
V7	D7	2.d	1r	4f#	1r
.	.	.	.	8a	.
.	.	.	.	8f#	.
vi	Em	.	.	4d	.
.	.	4c	.	8e	.
.	.	.	.	8f#	.
=13	=13	=13	=13	=13	=13
ii7	A7	4B	1r	4g	1r
.	.	2G	.	4e	.
.	.	.	.	4B	.
.	.	8A	.	4c#	.
.	.	8G	.	.	.
=14	=14	=14	=14	=14	=14
V	D	8F#	2.r	2d	2.r
.	.	8G	.	.	.
.	.	8F#	.	.	.
VI	E/G#	8E	.	.	.
.	.	4D	.	4dd	.
.	.	4r	4G#	4r	4ee
=15	=15	=15	=15	=15	=15
ii	Am	1r	4A	1r	4cc
.	.	.	4c	.	4a
iii	Bm	.	4B	.	4dd
.	.	.	4d	.	4b
=16	=16	=16	=16	=16	=16
VI7	E7	1r	2.e	1r	4g#
.	.	.	.	.	8b
.	.	.	.	.	8g#
.	.	.	.	.	4e
.	.	.	4d	.	8f#
.	.	.	.	.	8g#
=17	=17	=17	=17	=17	=17
ii	Am	1r	4c	1r	4a
.	.	.	4A	.	4cc
V7	D7	.	4d	.	4d
.	.	.	4c	.	4f#
=18	=18	=18	=18	=18	=18
.	.	2.r	8B	2.r	2g
.	.	.	8c	.	.
.	.	.	8B	.	.
.	.	.	8A	.	.
I	G	.	4G	.	4G
.	.	4GG	4d	4b	4gg
=19	=19	=19	=19	=19	=19
IV	C	[1G	2e	4cc	4ee
.	.	.	.	4ee	4gg
viioD7	F#halfdim7	.	2f#	4a	4cc
.	.	.	.	4cc	4ee
=20	=20	=20	=20	=20	=20
I	G	2.G]	4g	4b	4dd
.	.	.	8d	8g	8b
.	.	.	8c	8a	8cc
.	.	.	4B	4b	4dd
.	.	4GG	4d	4b	4gg
=21	=21	=21	=21	=21	=21
IV	C	[1G	2e	4cc	4ee
.	.	.	.	4ee	4gg
viiom7	F#halfdim7	.	2f#	4a	4cc
.	.	.	.	4cc	4ee
=22	=22	=22	=22	=22	=22
I	G	1G]	4g	4b	4dd
.	.	.	8d	8g	8b
.	.	.	8c	8a	8cc
.	.	.	4B	4b	4dd
.	.	.	4G	4dd	4bb
=23	=23	=23	=23	=23	=23
I#oD7	G#dim7	[1GG 1G	4f	4b	4gg#
ii	Am	.	4e	4cc	4aa
viioD7	F#dim7	.	4e-	4a	4ff#
I	G	.	4d	4b	4gg
=24	=24	=24	=24	=24	=24
IV/I	C/G	1GG 1G_	8c	4cc	8ee
.	.	.	8d	.	8ff#
.	.	.	8e	8e	8gg
I	G	.	8c	8f#	8ee
.	.	.	4B	4g	4dd
.	.	.	4G	4dd	4bb
=25	=25	=25	=25	=25	=25
I#oD7	G#dim7	1GG 1G]	4f	4b	4gg#
ii	Am	.	4e	4cc	4aa
viioD7	F#dim7	.	4e-	4a	4ff#
I	G	.	4d	4b	4gg
=26	=26	=26	=26	=26	=26
IV	C	4c	4e	4g	4ee
.	.	4c	4e	4g	4ee
.	.	4c	4e	4g	4ee
.	.	4r	4r	4r	4aa
=27	=27	=27	=27	=27	=27
V7	D7	4D	4a 4d	4cc	4ff#
.	.	4D	4a 4d	4cc	4ff#
.	.	4D	4a 4d	4cc	4ff#
.	.	4r	4r	4r	8ee
.	.	.	.	.	8ff#
=28	=28	=28	=28	=28	=28
I	G	4GG	4b 4d	4b	4gg
.	.	4GG	4b 4d	4b	4gg
.	.	4GG	4b 4d	4b	8gg
.	.	.	.	.	8bb
.	.	4r	4r	4r	8ddd
.	.	.	.	.	8bb
=29	=29	=29	=29	=29	=29
I	G	4BB	4B	4dd	4gg
.	.	4BB	4g	4dd	4gg
.	.	4BB	4g	4dd	4gg
.	.	4r	4r	4r	8bb
.	.	.	.	.	8gg
=30	=30	=30	=30	=30	=30
IV	C	4C	4cc	4g	4ee
.	.	4C	4cc	4g	4ee
.	.	4C	4cc	4g	4ee
.	.	4r	4r	4r	8ccc
.	.	.	.	.	8aa
=31	=31	=31	=31	=31	=31
V	D7	4D	4a	4cc	4ff#
.	.	4D	4a	4cc	4ff#
.	.	4D	4a	4cc	8ff#
.	.	.	.	.	8aa
.	.	4D	4a	4cc	8ff#
.	.	.	.	.	8dd
=32	=32	=32	=32	=32	=32
I	G	2GG	2g	2b	2gg
.	.	4G	4G	4g	4g
.	.	4B	4b	4b	4bb
=33	=33	=33	=33	=33	=33
ii	Em	4G	4g	4g	4gg
.	.	4E	4e	4e	4ee
.	.	4A	4a	4a	4aa
.	.	4F#	4f#	4f#	4ff#
=34	=34	=34	=34	=34	=34
viiom7	F#halfDim7	4D#	4d#	4d#	4dd#
.	.	8F#	8f#	8f#	8ff#
.	.	8D#	8d#	8d#	8dd#
III	B	4BB	4B	4B	4b
.	.	4r	4d#	4f#	4bb
=35	=35	=35	=35	=35	=35
ii	Em	1r	4e	4g	8gg
.	.	.	.	.	8aa
.	.	.	4f#	4a	8gg
.	.	.	.	.	8ff#
II	A	.	4g	4b	4ee
.	.	.	4c#	4e	4aa
=36	=36	=36	=36	=36	=36
V	D	2.r	4d	4f#	8ff#
.	.	.	.	.	8gg
.	.	.	4e	4g	8ff#
.	.	.	.	.	8ee
.	.	.	4f#	4a	4dd
.	.	4F#	4A	4dd	4ddd
=37	=37	=37	=37	=37	=37
V	D	4A	4c	4ff#	4ddd
ii	Em	4G	4B	4ee	4ddd
I	G	4B	4d	4gg	4ddd
V7	D7	4A	4c	4ff#	4ddd
=38	=38	=38	=38	=38	=38
V7	D7	2c	2D 2A	2aa	8ddd
.	.	.	.	.	8aa
.	.	.	.	.	8ff#
.	.	.	.	.	8dd
.	.	4c	4a	4ff#	4ddd
.	.	4c	4a	4ff#	4ddd
=39	=39	=39	=39	=39	=39
I	G	2B	2g	2gg	8ddd
.	.	.	.	.	8bb
.	.	.	.	.	8gg
.	.	.	.	.	8dd
.	.	4B	4d	4g	4ddd
.	.	4B	4d	4gg	4ddd
=40	=40	=40	=40	=40	=40
i	Gm	2B-	2g	2gg	8ddd
.	.	.	.	.	8bb-
.	.	.	.	.	8gg
.	.	.	.	.	8dd
.	.	4B-	4d	4g	4ddd
.	.	4B-	4d	4gg	4ddd
=41	=41	=41	=41	=41	=41
VI7m5m9	E7b5b9	1BB-	2f	1gg#	8ddd
.	.	.	.	.	8ccc#
.	.	.	.	.	8ddd
.	.	.	.	.	8eee
.	.	.	2d	.	8fff
.	.	.	.	.	8eee
.	.	.	.	.	8fff
.	.	.	.	.	8ddd
=42	=42	=42	=42	=42	=42
II	A	[1AA	2e	2aa	8ccc#
.	.	.	.	.	8eee
.	.	.	.	.	8ccc#
.	.	.	.	.	8aa
.	.	.	4r	4r	4a
.	.	.	4d#	4f#	4bb
=43	=43	=43	=43	=43	=43
*D:	*D:	*	*	*	*
V7	A7	1AA_	2e	2g	4gg
.	.	.	.	.	4ee
.	.	.	2c#	2e	4aa
.	.	.	.	.	8gg
.	.	.	.	.	8ee
=44	=44	=44	=44	=44	=44
I	D	1AA_	4d	4f#	4dd
.	.	.	4g#	4dd	4ff#
.	.	.	4a	4cc#	4ee
.	.	.	4r	4r	8cc#
.	.	.	.	.	8a
=45	=45	=45	=45	=45	=45
V7	A7	1AA_	4g	2cc#	4ee
.	.	.	4e	.	4gg
I	D	.	2f#	2dd	4ff#
.	.	.	.	.	8dd
.	.	.	.	.	8a
=46	=46	=46	=46	=46	=46
I#oD7	D#dim7	1AA_	2d#	2cc	4ff#
.	.	.	.	.	8aa
.	.	.	.	.	8ff#
ii	Em	.	4e	4b	4gg
.	.	.	4d	4f#	4bb
=47	=47	=47	=47	=47	=47
V7	A7	1AA]	1c#	1e	8bb
.	.	.	.	.	8aa
.	.	.	.	.	8eee
.	.	.	.	.	8ddd
.	.	.	.	.	8ccc#
.	.	.	.	.	8bb
.	.	.	.	.	8aa
.	.	.	.	.	8gg
=48	=48	=48	=48	=48	=48
I	D	2D	4d	8f#	4ff#
.	.	.	.	8dd	.
.	.	.	8dd	8ff#	2.r
.	.	.	8cc#	8ee	.
.	.	2r	8b	8dd	.
.	.	.	8a	8cc#	.
.	.	.	8g	8b	.
.	.	.	8f#	8a	.
=49	=49	=49	=49	=49	=49
V7	A7	1AA	2.e	2.g	8aa
.	.	.	.	.	8ccc#
.	.	.	.	.	8eee
.	.	.	.	.	8ddd
.	.	.	.	.	8ccc#
.	.	.	.	.	8bb
.	.	.	4c#	4e	8aa
.	.	.	.	.	8gg
=50	=50	=50	=50	=50	=50
I	D	4D	4d	4f#	8ff#
.	.	.	.	.	8aa
.	.	4r	4r	4r	8dd
.	.	.	.	.	8ff#
I	D	4F#	4d	4a	8f#
.	.	.	.	.	8dd
.	.	4r	4r	4r	8a
.	.	.	.	.	8f#
=51	=51	=51	=51	=51	=51
ii	Em	4G	4B	4g	8e
.	.	.	.	.	8b
.	.	4r	4r	4r	8g
.	.	.	.	.	8e
I#oD7	D#dim7	4A	4c	4f#	8d#
.	.	.	.	.	8cc
.	.	4r	4r	4r	8a
.	.	.	.	.	8f#
=52	=52	=52	=52	=52	=52
ii	Em	4G	4B	4g	8e
.	.	.	.	.	8b
.	.	4r	4r	4r	8g
.	.	.	.	.	8e
I#oD7	D#dim7	4A	4c	4d#	8d#
.	.	.	.	.	8cc
.	.	4r	4r	4r	8a
.	.	.	.	.	8f#
=53	=53	=53	=53	=53	=53
ii	Em	4G	4B	4e	8e
.	.	.	.	.	8g
.	.	2.r	2.r	2.r	8b
.	.	.	.	.	8ee
.	.	.	.	.	8gg
.	.	.	.	.	8bb
.	.	.	.	.	8gg
.	.	.	.	.	8ee
=54	=54	=54	=54	=54	=54
viioD7	C#dim7	4G	4e	4b-	8cc#
.	.	.	.	.	8bb-
.	.	4r	4r	4r	8gg
.	.	.	.	.	8ee
i/vi#	Dm/F#	4F	4f	4a	8dd
.	.	.	.	.	8aa
.	.	4r	4r	4r	8ff
.	.	.	.	.	8dd
=55	=55	=55	=55	=55	=55
viioD7	C#dim7/G	4G	4e	4b-	8cc#
.	.	.	.	.	8bb-
.	.	4r	4r	4r	8gg
.	.	.	.	.	8ee
i	Dm/F#	4F	4f	4a	8dd
.	.	.	.	.	8ddd
.	.	4r	4r	4r	8aa
.	.	.	.	.	8ff
=56	=56	=56	=56	=56	=56
i	Dm	8D	8d	8d	8dd
.	.	8d	8dd	8dd	8ddd
.	.	8A	8a	8a	8aa
.	.	8F	8f	8f	8ff
v	Gm/D	8D	8d	8d	8dd
.	.	8d	8dd	8dd	8ddd
.	.	8A	8a	8a	8aa
.	.	8F	8f	8f	8ff
=57	=57	=57	=57	=57	=57
i	Dm	8D	8d	8d	8dd
.	.	8d	8dd	8dd	8ddd
.	.	8B-	8b-	8b-	8bb-
.	.	8G	8g	8g	8gg
v	Gm/D	8D	8d	8d	8dd
.	.	8d	8dd	8dd	8ddd
.	.	8B-	8b-	8b-	8bb-
.	.	8G	8g	8g	8gg
=58	=58	=58	=58	=58	=58
i	Dm	8D	8d	8d	8dd
.	.	8d	8dd	8dd	8ddd
.	.	8A	8a	8a	8aa
.	.	8F	8f	8f	8ff
v	Gm/D	8D	8d	8d	8dd
.	.	8d	8dd	8dd	8ddd
.	.	8A	8a	8a	8aa
.	.	8F	8f	8f	8ff
=59	=59	=59	=59	=59	=59
i	Dm	8D	8d	8d	8dd
.	.	8B-	8b-	8b-	8bb-
.	.	8d	8dd	8dd	8ddd
.	.	8B-	8b-	8b-	8bb-
v	Gm/D	8F	8f	8f	8ff
.	.	8D	8d	8d	8dd
.	.	8BB-	8B-	8B-	8b-
.	.	8D	8d	8d	8dd
=60	=60	=60	=60	=60	=60
i	Dm	8F	8f	8f	8ff
.	.	8B-	8b-	8b-	8bb-
.	.	8d	8dd	8dd	8ddd
.	.	8B-	8b-	8b-	8bb-
v/i	Gm/D	8F	8f	8f	8ff
.	.	8D	8d	8d	8dd
.	.	8BB-	8B-	8B-	8b-
.	.	8D	8d	8d	8dd
=61	=61	=61	=61	=61	=61
vii-	Bb	8BB-	8B-	8B-	8b-
.	.	8D	8d	8d	8dd
.	.	8F	8f	8f	8ff
.	.	8D	8d	8d	8dd
.	.	8BB-	8B-	8B-	8b-
.	.	8FF	8F	8f	8f
.	.	8BB-	8B-	8B-	8b-
.	.	8FF	8F	8f	8f
=62	=62	=62	=62	=62	=62
vii-	Bb	8BB-	8B-	8B-	8b-
.	.	8D	8d	8d	8dd
.	.	8F	8f	8f	8ff
.	.	8D	8d	8d	8dd
.	.	8BB-	8B-	8B-	8b-
.	.	8FF	8F	8f	8f
.	.	8BB-	8B-	8B-	8b-
.	.	8FF	8F	8f	8f
=63	=63	=63	=63	=63	=63
vii-	Bb	8BB-	8B-	8B-	8b-
.	.	8FF	8F	8f	8f
.	.	8BB-	8B-	8B-	8b-
.	.	8FF	8F	8f	8f
.	.	8BB-	4B-	4B-	8b-
.	.	8FF	.	.	8f
.	.	8BB-	4B-	4f	8b-
.	.	8C	.	.	8a

=81	=81	=81	=81	=81	=81
*Fm:	*Fm:	*	*	*	*
iv7	D#dim7	4F#	4A	4d#	4cc
vii	Em	4G	4B	4e	4b
VoD7	C#dim7/E	4E	4G	4c#	4b-
VI	D/F#	4F#	4A	[4d	4a
=82	=82	=82	=82	=82	=82
*D:	*D:	*	*	*	*
V	G	2G	2B	4d]	4a
I	D/A	.	.	4e	4g
I	D	2A	4A	4d	4f#
-I#	F#dim	.	4G	4c#	4e
=83	=83	=83	=83	=83	=83
I	D#dim7/F#	4D	4F#	4d	8d
.	.	.	.	.	8dd
ii	Em	2r	2r	2r	8ff#
.	.	.	.	.	8aa
viioD7	C#dim7/E	.	.	.	8ddd
.	.	.	.	.	8dd
I	D/F#	4a	4cc	4ff#	8ff#
.	.	.	.	.	8aa
=84	=84	=84	=84	=84	=84
IV	G	4f#	4a	4dd#	4ccc
.	.	4g	4b	4ee	4bb
I	D/A	4e	4g	4cc#	4bb-
.	.	4f#	4a	[4dd	4aa
=85	=85	=85	=85	=85	=85
I	D	2g	2b	4dd]	4aa
.	.	.	.	4ee	4gg
-iii	F#dim	2a	4a	4dd	4ff#
.	.	.	4g	4cc#	4ee
=86	=86	=86	=86	=86	=86
I	D	4D	4f#	4dd	8dd
.	.	.	.	.	8a
.	.	2.r	4r	4r	8f#
.	.	.	.	.	8d
V	A	.	4c#	8a	4ee
.	.	.	.	8e	.
.	.	.	4r	8c#	4r
.	.	.	.	8A	.
=87	=87	=87	=87	=87	=87
I	D	2r	8d	4d	4ff#
.	.	.	8A	.	.
.	.	.	8F#	4r	4r
.	.	.	8D	.	.
V7	A7	8A	4g	4ee 4a	4ccc#
.	.	8E	.	.	.
.	.	8C#	4r	4r	4r
.	.	8AA	.	.	.
=88	=88	=88	=88	=88	=88
I	D	4DD	4f#	4ff# 4a	4ddd
.	.	4r	2r	4r	4r
.	.	4r	.	4r	4r
.	.	4r	4a	4r	4r
=89	=89	=89	=89	=89	=89
I	D	4d	4f#	4r	1r
.	.	4r	4d	8ddd	.
.	.	.	.	8ccc#	.
.	.	4G	4g	8bb	.
.	.	.	.	8aa	.
.	.	4r	4e	8gg	.
.	.	.	.	8ff#	.
=90	=90	=90	=90	=90	=90
ii	Em/G	2A	4c#	4ee	1r
.	.	.	8e	8ff#	.
.	.	.	8c#	8gg	.
V7	A7	2r	4A	8aa	.
.	.	.	.	8bb	.
.	.	.	8B	8aa	.
.	.	.	8c#	8gg	.
=91	=91	=91	=91	=91	=91
I	D	1r	4d	8ff#	1r
.	.	.	.	8ee	.
iv	Bm	.	4B	8dd	.
.	.	.	.	8cc#	.
I	D/F	.	4F#	8dd	.
.	.	.	.	8ff#	.
ii7	E7/G	.	4G#	8ee	.
.	.	.	.	8dd	.
=92	=92	=92	=92	=92	=92
V	A	1r	2A	8cc#	1r
.	.	.	.	8dd	.
.	.	.	.	8ee	.
.	.	.	.	8cc#	.
.	.	.	4a	4a	.
.	.	.	4r	4b	.
=93	=93	=93	=93	=93	=93
*Em:	*Em:	*	*	*	*
i	Em	1r	4e	4g	4r
.	.	.	4r	4e	8eee
.	.	.	.	.	8ddd
iio	F#dim/A	.	4A	4a	8ccc
.	.	.	.	.	8bb
.	.	.	4r	4f#	8aa
.	.	.	.	.	8gg
=94	=94	=94	=94	=94	=94
v	B7	1r	2B	4d#	4ff#
.	.	.	.	8f#	8gg
.	.	.	.	8d#	8aa
.	.	.	2r	4B	8bb
.	.	.	.	.	8aa
.	.	.	.	8c#	8gg
.	.	.	.	8d#	8ff#
=95	=95	=95	=95	=95	=95
viio	D#dim	1r	1r	4e	8gg
.	.	.	.	.	8ff#
.	.	.	.	4f#	8ee
.	.	.	.	.	8dd#
.	.	.	.	4g	8ee
.	.	.	.	.	8gg
.	.	.	.	4d#	8ff#
.	.	.	.	.	8aa
=96	=96	=96	=96	=96	=96
i	Em	2E	2B	2e	8gg
.	.	.	.	.	8ee
.	.	.	.	.	8bb
.	.	.	.	.	8gg
.	.	2r	2r	2r	8ee
.	.	.	.	.	8b
.	.	.	.	.	8ee
.	.	.	.	.	8b
=97	=97	=97	=97	=97	=97
.	.	2E	2B	2g	8ee
.	.	.	.	.	8gg
.	.	.	.	.	8bb
.	.	.	.	.	8gg
.	.	2r	2r	2r	8ee
.	.	.	.	.	8b
.	.	.	.	.	8ee
.	.	.	.	.	8b
=98	=98	=98	=98	=98	=98
v	B	2BB	2f# 2B	8d#	2bb
.	.	.	.	8f#	.
.	.	.	.	8b	.
.	.	.	.	8f#	.
.	.	2r	2r	8d#	2r
.	.	.	.	8B	.
.	.	.	.	8d#	.
.	.	.	.	8B	.
=99	=99	=99	=99	=99	=99
v7	B7	2BB	2f# 2B	8d#	2aa 2b
.	.	.	.	8f#	.
.	.	.	.	8b	.
.	.	.	.	8f#	.
.	.	2r	2r	8d#	2r
.	.	.	.	8B	.
.	.	.	.	8d#	.
.	.	.	.	8B	.
=100	=100	=100	=100	=100	=100
i	Em	2E	2e	2g	8gg
.	.	.	.	.	8ee
.	.	.	.	.	8bb
.	.	.	.	.	8gg
.	.	2r	2r	2r	8ee
.	.	.	.	.	8b
.	.	.	.	.	8ee
.	.	.	.	.	8b
=101	=101	=101	=101	=101	=101
i	Em	2E	2g	2b	8ee
.	.	.	.	.	8gg
.	.	.	.	.	8bb
.	.	.	.	.	8gg
.	.	2r	2r	2r	8ee
.	.	.	.	.	8b
.	.	.	.	.	8ee
.	.	.	.	.	8b
=102	=102	=102	=102	=102	=102
iv	Am7	4AA	1g	[1cc	8ee
.	.	.	.	.	8gg
.	.	4A	.	.	8ccc
.	.	.	.	.	8gg
.	.	4A	.	.	8ee
.	.	.	.	.	8cc
.	.	4A	.	.	8ee
.	.	.	.	.	8cc
=103	=103	=103	=103	=103	=103
VII	D7	4D	[1f#	1cc 1a]	8ff#
.	.	.	.	.	8aa
.	.	4d	.	.	8ccc
.	.	.	.	.	8aa
.	.	4d	.	.	8ff#
.	.	.	.	.	8cc
.	.	4d	.	.	8ff#
.	.	.	.	.	8cc
=104	=104	=104	=104	=104	=104
III7	G7	4GG	1f#]	[1b	8b
.	.	.	.	.	8ff#
.	.	4G	.	.	8bb
.	.	.	.	.	8ff#
.	.	4G	.	.	8dd
.	.	.	.	.	8b
.	.	4G	.	.	8dd
.	.	.	.	.	8b
=105	=105	=105	=105	=105	=105
VI7	C7	4C	[1e	1b 1g]	8ee
.	.	.	.	.	8gg
.	.	4c	.	.	8bb
.	.	.	.	.	8gg
.	.	4c	.	.	8ee
.	.	.	.	.	8b
.	.	4c	.	.	8ee
.	.	.	.	.	8b
=106	=106	=106	=106	=106	=106
iio	F#dim7	4FF#	1e]	[1a	8cc
.	.	.	.	.	8ee
.	.	4F#	.	.	8aa
.	.	.	.	.	8ee
.	.	4F#	.	.	8cc
.	.	.	.	.	8a
.	.	4F#	.	.	8cc
.	.	.	.	.	8a
=107	=107	=107	=107	=107	=107
v7	B7	4BB	1d#	1a 1f#]	8b
.	.	.	.	.	8ff#
.	.	4B	.	.	8aa
.	.	.	.	.	8ff#
.	.	4B	.	.	8dd#
.	.	.	.	.	8b
.	.	4B	.	.	8dd#
.	.	.	.	.	8b
=108	=108	=108	=108	=108	=108
i	Em	4EE	4B	4g	8ee
.	.	.	.	.	8gg
.	.	4E	4e	4b	8bb
.	.	.	.	.	8gg
.	.	4E	4e	4b	8ee
.	.	.	.	.	8b
.	.	4E	4e	4b	8g
.	.	.	.	.	8b
=109	=109	=109	=109	=109	=109
.	.	4EE	4G	4B	8e
.	.	.	.	.	8ee
.	.	4E	4g	4b	8b
.	.	.	.	.	8g
.	.	4E	4g	4b	8e
.	.	.	.	.	8ee
.	.	4E	4g	4b	8b
.	.	.	.	.	8g
=110	=110	=110	=110	=110	=110
iv	Am/E	4EE	4A	4c	8e
.	.	.	.	.	8ee
.	.	4E	4a	4cc	8cc
.	.	.	.	.	8a
.	.	4E	4a	4cc	8e
.	.	.	.	.	8ee
.	.	4E	4a	4cc	8cc
.	.	.	.	.	8a
=111	=111	=111	=111	=111	=111
i	Em	4EE	4G	4B	8e
.	.	.	.	.	8ee
.	.	4E	4g	4b	8b
.	.	.	.	.	8g
.	.	4E	4g	4b	8e
.	.	.	.	.	8ee
.	.	4E	4g	4b	8b
.	.	.	.	.	8g
=112	=112	=112	=112	=112	=112
I	E7/D	4DD	4G#	4B	8e
.	.	.	.	.	8ee
.	.	4D	4g#	4b	8b
.	.	.	.	.	8g#
.	.	4D	4g#	4b	8e
.	.	.	.	.	8ee
.	.	4D	4g#	4b	8b
.	.	.	.	.	8g#
=113	=113	=113	=113	=113	=113
iv	Am/C	4CC	4A	4A	8e
.	.	.	.	.	8ee
.	.	4C	4e	4a	8cc
.	.	.	.	.	8a
i	Em	4C	4e	4a	8e
.	.	.	.	.	8ee
.	.	4C	4e	4a	8cc
.	.	.	.	.	8a
=114	=114	=114	=114	=114	=114
.	.	4GG#	4B	4d	8e
.	.	.	.	.	8ee
.	.	4G#	4b	4dd	8dd
.	.	.	.	.	8b
.	.	4G#	4b	4dd	8e
.	.	.	.	.	8ee
.	.	4G#	4b	4dd	8dd
.	.	.	.	.	8b
=115	=115	=115	=115	=115	=115
iv	Am	4A	4a	4cc	8a
.	.	.	.	.	8aa
.	.	4r	4r	4r	8ee
.	.	.	.	.	8cc
.	Am/G	4G	4a 4A	4cc# 4e	8a
.	.	.	.	.	8aa
.	.	4r	4r	4r	8ee
.	.	.	.	.	8cc#
=116	=116	=116	=116	=116	=116
ii	Dm/F	4F	4a 4A	4dd 4d	8a
.	.	.	.	.	8aa
.	.	4r	4r	4r	8ff
.	.	.	.	.	8dd
IV7	A7/C	4C#	4A 4g	4a 4ee	8a
.	.	.	.	.	8aa
.	.	4r	4r	4r	8gg
.	.	.	.	.	8ee
=117	=117	=117	=117	=117	=117
vii	Dm	4D	4f 4A	4ff 4a	8a
.	.	.	.	.	8aa
.	.	4r	4r	4r	8ff
.	.	.	.	.	8dd
III	G7/F	4F	4d	4b 4d	8g
.	.	.	.	.	8gg
.	.	4r	4r	4r	8ff
.	.	.	.	.	8dd
=118	=118	=118	=118	=118	=118
VI	C/E	4E	4g	4e 4cc	8g
.	.	.	.	.	8gg
.	.	4r	4r	4r	8ee
.	.	.	.	.	8cc
III7	G7/B	4BB	4g	4f 4dd	4g
.	.	4r	4r	4r	4gg
=119	=119	=119	=119	=119	=119
*C:	*C:	*	*	*	*
I	C	2C	4g	4g	4ee
.	.	.	8e	8cc	4cc
.	.	.	8d	8b	.
ii	Dm/F	2FF	8c	8a	4ff
.	.	.	8B	8g	.
.	.	.	8A	8f	4dd
.	.	.	8G	8e	.
=120	=120	=120	=120	=120	=120
V7	G7	2GG	4F	2d	4b
.	.	.	2r	.	8dd
.	.	.	.	.	8b
.	.	4G	.	4B	4g
.	G7/F	4F	4f	8c	8a
.	.	.	.	8d	8b
=121	=121	=121	=121	=121	=121
I	C/E	4E	4e	4e	4cc
.	.	4D	4b	4f	4dd
iii-7m5m9	E-7b5b9/B-	4C	4cc	4g	4ee
.	.	4BB-	4d	4g#	4dd
=122	=122	=122	=122	=122	=122
VI	A	2AA	2e	2a	4cc#
.	.	.	.	.	8ee
.	.	.	.	.	8cc#
VI7	A7	4A	4r	4c#	4a
.	.	4G	4g	8d	8b
.	.	.	.	8e	8cc#
=123	=123	=123	=123	=123	=123
ii	Dm/F	4F	4f	4f	4dd
.	.	4E	4cc#	4g	4ee
.	.	4D	4dd	4a	4ff
.	.	4C	4e	4a#	4ee
=124	=124	=124	=124	=124	=124
IV#7m5	F#7b5/C	1BB	2f#	2b	4dd#
.	.	.	.	.	8ff#
.	.	.	.	.	8dd#
VII	B	.	2r	2r	4b
.	.	.	.	.	4bb
=125	=125	=125	=125	=125	=125
*Em:	*Em:	*	*	*	*
i	Em	2E	1r	8r	4gg
.	.	.	.	8e	.
.	.	.	.	8f#	4ee
.	.	.	.	8g	.
viioD7	Fdim7	2r	.	8f#	4aa
.	.	.	.	8g	.
.	.	.	.	8a	4ff#
.	.	.	.	8b	.
=126	=126	=126	=126	=126	=126
v	B	2.r	4r	4cc	4dd#
.	.	.	4d#	2b	8ff#
.	.	.	.	.	8dd#
.	.	.	4f#	.	4b
v7	B7	4B	8a	4f#	8cc#
.	.	.	8f#	.	8dd#
=127	=127	=127	=127	=127	=127
i	Em	4G	4b	2g	4ee
.	.	4E	4g	.	4gg
.	.	4A	4cc	4r	8ff#
.	.	.	.	.	8gg
vii#oD7	F#dim7	4F#	4a	8ff#	8aa
.	.	.	.	8gg	8bb
=128	=128	=128	=128	=128	=128
.	.	4D#	4f#	2.aa	2.ccc
.	.	8F#	8a	.	.
.	.	8D#	8f#	.	.
v	B7	4BB	4d#	.	.
.	.	8C#	8e	8gg	8bb
.	.	8D#	8f#	8ff#	8aa
=129	=129	=129	=129	=129	=129
i	Em	2.E	2.B	8ee	8gg
.	.	.	.	8dd#	8ff#
.	.	.	.	8ee	8gg
.	.	.	.	8ff#	8aa
.	.	.	.	4gg	4bb
v	Bm/D	4D	8c#	4ff#	4bb
.	.	.	8d	.	.
=130	=130	=130	=130	=130	=130
IV	A/C#	1C#	4e	1ee	8bb
.	.	.	.	.	8aa
.	.	.	4c#	.	8eee
.	.	.	.	.	8ddd
.	.	.	4A	.	8ccc#
.	.	.	.	.	8bb
.	.	.	[4a	.	8aa
.	.	.	.	.	8gg
=131	=131	=131	=131	=131	=131
VII	D	2.D	4a]	4ff#	4ff#
.	.	.	8f#	2r	8aa
.	.	.	8a	.	8ff#
.	.	.	4dd	.	4dd
.	.	4D	4f#	4a	4ddd
=132	=132	=132	=132	=132	=132
III	G/D	[1d	4g	2b	4bb
.	.	.	4b	.	4ddd
.	.	.	4e	2cc#	4gg
.	.	.	4g	.	4bb
=133	=133	=133	=133	=133	=133
vi#om7	C#halfdim7/D	2.d]	2.f#	2.dd	4aa
.	.	.	.	.	8ff#
.	.	.	.	.	8gg
.	.	.	.	.	4aa
.	.	4D	4f#	4a	4ddd
=134	=134	=134	=134	=134	=134
III	G/D	[1d	4g	2b	4bb
.	.	.	4b	.	4ddd
.	.	.	4e	2cc#	4gg
.	.	.	4g	.	4bb
=135	=135	=135	=135	=135	=135
vi#om7	C#halfdim7/D	2.d]	4f#	[1dd	4aa
.	.	.	8d	.	8ff#
.	.	.	8e	.	8gg
.	.	.	4f#	.	4aa
.	.	4DD	4g	.	4bb
=136	=136	=136	=136	=136	=136
I/VII	D	[1D	4a	4dd]	4ccc
.	.	.	8f#	8cc	8aa
.	.	.	8g	8b	8bb
.	.	.	4a	4a	4ccc
.	.	.	4b	4g	4ddd
=137	=137	=137	=137	=137	=137
*D:	*D:	*	*	*	*
I7	D7	1D_	[1cc	[1A 1f#	2.eee
.	.	.	.	.	4ccc
=138	=138	=138	=138	=138	=138
.	.	1D_	1cc_	1A 1f#_	4aa
.	.	.	.	.	4ff#
.	.	.	.	.	4cc
.	.	.	.	.	4a
=139	=139	=139	=139	=139	=139
.	.	2D]	2cc]	2A 2f#]	4f#
.	.	.	.	.	4d
.	.	4r	2r	2r	4c
.	.	4d	.	.	4r
=140	=140	=140	=140	=140	=140
I	G	4B	1r	1r	4r
.	.	4G	.	.	8gg
.	.	.	.	.	8ff#
.	.	4c	.	.	8ee
.	.	.	.	.	8dd
ii	Am	4A	.	.	8cc
.	.	.	.	.	8b
=141	=141	=141	=141	=141	=141
.	.	4F#	1r	1r	4a
.	.	8A	.	.	8b
.	.	8F#	.	.	8cc
V	D	4D	.	.	8dd
.	.	.	.	.	8ee
.	.	8E	.	.	8dd
.	.	8F#	.	.	8cc
=142	=142	=142	=142	=142	=142
vi	Em/G	4G	1r	1r	8b
.	.	.	.	.	8a
.	.	4E	.	.	8g
.	.	.	.	.	8f#
.	.	4BB	.	.	8g
.	.	.	.	.	8b
II7	A7/C#	4C#	.	.	8a
.	.	.	.	.	8g
=143	=143	=143	=143	=143	=143
V	D	2D	1r	1r	8f#
.	.	.	.	.	8g
.	.	.	.	.	8a
.	.	.	.	.	8f#
.	.	4d	.	.	4d
.	.	4r	.	.	4dd
=144	=144	=144	=144	=144	=144
I	G	1r	4r	4r	4b
.	.	.	4B	4d	4g
vi	Em	.	4G	4B	4ee
IV	C	.	4E	4G	4cc
=145	=145	=145	=145	=145	=145
ii	Am/C	1r	4c	4e	4a
viio	F#dim/A	.	4A	4c	4ff#
V	D	.	4F#	4A	4dd
iii	Bm	.	4d	4f#	4b
=146	=146	=146	=146	=146	=146
.	.	1r	4B	4d	8gg
.	.	.	.	.	8ff#
I	G	.	4G	4B	8ee
.	.	.	.	.	8dd
vi	Em	.	8e	8g	4cc
.	.	.	8d	8f#	.
.	.	.	8c	8e	4aa
.	.	.	8B	8d	.
=147	=147	=147	=147	=147	=147
V	D	1r	4A	4c	4ff#
.	.	.	4f#	4a	4dd
iii	Bm/D	.	4d	4f#	8bb
.	.	.	.	.	8aa
I	G	.	4B	4d	8gg
.	.	.	.	.	8ff#
=148	=148	=148	=148	=148	=148
vi	Em/G	4r	4g	4b	4ee
ii	Am	4A	2.r	4ee	8ccc
.	.	.	.	.	8bb
.	.	4F#	.	4aa	4aa
V7	D7	4D	.	4ff#	8ddd
.	.	.	.	.	8ccc
=149	=149	=149	=149	=149	=149
I	G	4G	1r	4dd	4bb
vi	Em	4E	.	8ee	4gg
.	.	.	.	8ff#	.
IV	C	4C	.	4gg	4ee
vii	Am	4AA	.	4cc	4aa
=150	=150	=150	=150	=150	=150
I	G	4D	2.r	2b	2gg
.	.	4C#	.	.	.
.	.	4D	.	2a	2ff#
.	.	4DD	8dd	.	.
V7	D7	.	8cc	.	.
=151	=151	=151	=151	=151	=151
I	G	4GG	8b	2.b	2.gg
.	.	.	8cc	.	.
.	.	8BB	8b	.	.
.	.	8D	8a	.	.
.	.	4G	4g	.	.
.	.	4GG	4d	4b	4gg
=152	=152	=152	=152	=152	=152
IV	C	[1G	2e	4cc	4ee
.	.	.	.	4ee	4gg
viiom7	F#halfdim7	.	2f#	4a	4cc
.	.	.	.	4cc	4ee
=153	=153	=153	=153	=153	=153
I	G	2.G]	4g	4b	4dd
.	.	.	8d	8g	8b
.	.	.	8c	8a	8cc
.	.	.	4B	4b	4dd
.	.	4GG	4d	4b	4gg
=154	=154	=154	=154	=154	=154
IV	C	[1G	2e	4cc	4ee
.	.	.	.	4ee	4gg
viiom7	F#halfdim7	.	2f#	4a	4cc
.	.	.	.	4cc	4ee
=155	=155	=155	=155	=155	=155
I	G	1G]	4g	4b	4dd
.	.	.	8d	8g	8b
.	.	.	8c	8a	8cc
.	.	.	4B	4b	4dd
.	.	.	4G	4dd	4bb
=156	=156	=156	=156	=156	=156
I#oD7	G#dim7	[1GG 1G	4f	4b	4gg#
ii	Am	.	4e	4cc	4aa
viioD7	F#dim7	.	4e-	4a	4ff#
I	G	.	4d	4b	4gg
=157	=157	=157	=157	=157	=157
VI	C/G	1GG 1G_	8c	4cc	8ee
.	.	.	8d	.	8ff#
.	.	.	8e	8e	8gg
.	.	.	8c	8f#	8ee
I	G	.	4B	4g	4dd
.	.	.	4G	4dd	4bb
=158	=158	=158	=158	=158	=158
I#oD7	G#dim7	1GG 1G]	4f	4b	4gg#
ii	Am	.	4e	4cc	4aa
viioD7	F#dim7	.	4e-	4a	4ff#
I	G	.	4d	4b	4gg
=159	=159	=159	=159	=159	=159
iii	C	4c	4e	4g	4ee
.	.	4c	4e	4g	4ee
.	.	4c	4e	4g	4ee
.	..	4r	4r	4r	4aa
=160	=160	=160	=160	=160	=160
V7	D7	4D	4a 4d	4cc	4ff#
.	.	4D	4d 4a	4cc	4ff#
.	.	4D	4a 4d	4cc	4ff#
.	.	4r	4r	4r	8ee
.	.	.	.	.	8ff#
=161	=161	=161	=161	=161	=161
I	G	4GG	4b 4d	4b	4gg
.	.	4GG	4b 4d	4b	4gg
.	.	4GG	4b 4d	4b	8gg
.	.	.	.	.	8bb
.	.	4r	4r	4r	8ddd
.	.	.	.	.	8bb
=162	=162	=162	=162	=162	=162
.	G/B	4BB	4b	4dd	4gg
.	.	4BB	4b	4dd	4gg
.	.	4BB	4b	4dd	4gg
.	.	4r	4r	4r	8bb
.	.	.	.	.	8gg
=163	=163	=163	=163	=163	=163
IV	C	4C	4cc	4g	4ee
.	.	4C	4cc	4g	4ee
.	.	4C	4cc	4g	4ee
.	.	4r	4r	4r	8eee
.	.	.	.	.	8ccc
=164	=164	=164	=164	=164	=164
ii	Am/C	2C	2c	1e	4aa
.	.	.	.	.	4aa
+ii	A/C#	2C#	2c#	.	4aa
.	.	.	.	.	8bb
.	.	.	.	.	8gg
=165	=165	=165	=165	=165	=165
V	D	2D	[1d	2d	4ff#
.	.	.	.	.	4ddd
VI	E7/D	2r	.	4r	4bb
.	.	.	.	4ee	4gg#
=166	=166	=166	=166	=166	=166
.	.	1r	1d_	4cc	4eee
ii	Am/D	.	.	4a	4ccc
V	D	.	.	4f#	4aa
.	.	.	.	4dd	4ff#
=167	=167	=167	=167	=167	=167
.	.	1r	1d_	4b	4ddd
.	.	.	.	4g	4bb
ii	Em	.	.	4e	4gg
iv	C	.	.	4cc	4ee
=168	=168	=168	=168	=168	=168
.	.	2.r	1d_	4a	4ccc
.	.	.	.	4f#	4aa
I	D	.	.	4d	4ff#
.	.	4D	.	4f#	4aa
I	G	4BB	2d]	4g	4gg
.	.	4GG	.	2r	4bb
ii	Am	4C	4e	.	4aa
.	.	4AA	4c	4a	4ccc
=170	=170	=170	=170	=170	=170
V7	D7	4FF#	4A	2.cc	2.eee
.	.	8AA	8c	.	.
.	.	8FF#	8A	.	.
.	.	4DD	4F#	.	.
.	.	8EE	8G	8b	8ddd
.	.	8FF#	8A	8a	8ccc
=171	=171	=171	=171	=171	=171
I	G	2GG	2B	2g	8bb
.	.	.	.	.	8ddd
.	.	.	.	.	8bb
.	.	.	.	.	8gg
.	.	2r	2r	2r	8dd
.	.	.	.	.	8b
.	.	.	.	.	8g
.	.	.	.	.	8b
=172	=172	=172	=172	=172	=172
V7	D7/F#	2FF#	2d	2a	8a
.	.	.	.	.	8b
.	.	.	.	.	8cc
.	.	.	.	.	8dd
.	.	2r	2r	2r	8ee
.	.	.	.	.	8dd
.	.	.	.	.	8ee
.	.	.	.	.	8cc
=173	=173	=173	=173	=173	=173
I	G	2GG	2d	2b	8b
.	.	.	.	.	8dd
.	.	.	.	.	8b
.	.	.	.	.	8g
.	.	2r	2r	2r	8d
.	.	.	.	.	8g
.	.	.	.	.	8d
.	.	.	.	.	8B
=174	=174	=174	=174	=174	=174
ii	Am	4C	4E	4c	8A
.	.	.	.	.	8e
.	.	4r	4r	4r	8c
.	.	.	.	.	8A
.	.	4D	4F	4B	8G#
.	.	.	.	.	8f
.	.	4r	4r	4r	8d
.	.	.	.	.	8B
=175	=175	=175	=175	=175	=175
.	.	4C	4E	4c	8A
.	.	.	.	.	8e
.	.	4r	4r	4r	8c
.	.	.	.	.	8A
I#oD7	G#dim7	4D	4F	4B	8G#
.	.	.	.	.	8f
.	.	4r	4r	4r	8d
.	.	.	.	.	8B
=176	=176	=176	=176	=176	=176
ii	Am/C	4C	4E	4c	8A
.	.	.	.	.	8c
.	.	2.r	2.r	2.r	8e
.	.	.	.	.	8a
.	.	.	.	.	8cc
.	.	.	.	.	8ee
.	.	.	.	.	8cc
.	.	.	.	.	8a
=177	=177	=177	=177	=177	=177
viioD7	F#dim7	4C	4A	4e-	8f#
.	.	.	.	.	8ee-
.	.	4r	4r	4r	8cc
.	.	.	.	.	8a
I/i	Gm/B-	4BB-	4B-	4d	8g
.	.	.	.	.	8dd
.	.	4r	4r	4r	8b-
.	.	.	.	.	8g
=178	=178	=178	=178	=178	=178
viioD7	F#dim7	4C	4A	4e-	8f#
.	.	.	.	.	8ee-
.	.	4r	4r	4r	8cc
.	.	.	.	.	8a
I/i	Gm/B-	4BB-	4B-	4d	8g
.	.	.	.	.	8gg
.	.	4r	4r	4r	8dd
.	.	.	.	.	8b-
=179	=179	=179	=179	=179	=179
.	Gm	8GG	8G	8G	8g
.	.	8G	8g	8g	8gg
.	.	8D	8d	8d	8dd
.	.	8BB-	8B-	8B-	8b-
.	.	8GG	8G	8G	8g
.	.	8G	8g	8g	8gg
.	.	8D	8d	8d	8dd
.	.	8BB-	8B-	8B-	8b-
=180	=180	=180	=180	=180	=180
.	.	8GG	8G	8G	8g
.	.	8G	8g	8g	8gg
VI/i	E-	8E-	8e-	8e-	8ee-
.	.	8C	8c	8c	8cc
.	.	8GG	8G	8G	8g
.	.	8G	8g	8g	8gg
.	.	8E-	8e-	8e-	8ee-
.	.	8C	8c	8c	8cc
=181	=181	=181	=181	=181	=181
I/i	Gm	8GG	8G	8G	8g
.	.	8G	8g	8g	8gg
.	.	8D	8d	8d	8dd
.	.	8BB-	8B-	8B-	8b-
.	.	8GG	8G	8G	8g
.	.	8G	8B-	8g	8gg
.	.	8D	8d	8d	8dd
.	.	8BB-	8g	8B-	8b-
=182	=182	=182	=182	=182	=182
.	.	[1GG	1B-	1e-	8g
.	.	.	.	.	8gg
VI/i	E-	.	.	.	8ee-
.	.	.	.	.	8b-
.	.	.	.	.	8g
.	.	.	.	.	8d
.	.	.	.	.	8e-
.	.	.	.	.	8f
=183	=183	=183	=183	=183	=183
I/i	Gm	8GG]	8G	8G	8g
.	.	8BB-	8B-	8B-	8b-
.	.	8E-	8e-	8e-	8ee-
.	.	8G	8g	8g	8gg
.	.	8B-	8b-	8b-	8bb-
.	.	8G	8g	8g	8gg
.	.	8B-	8b-	8b-	8bb-
.	.	8G	8g	8g	8gg
=184	=184	=184	=184	=184	=184
VI/i	E-	8E-	8e-	8e-	8ee-
.	.	8G	8g	8g	8gg
.	.	8B-	8b-	8b-	8bb-
.	.	8G	8g	8g	8gg
.	.	8E-	8e-	8e-	8ee-
.	.	8BB-	8B-	8B-	8b-
.	.	8E-	8e-	8e-	8ee-
.	.	8BB-	8B-	8B-	8b-
=185	=185	=185	=185	=185	=185
.	.	8E-	8e-	8e-	8ee-
.	.	8G	8g	8g	8gg
.	.	8B-	8b-	8b-	8bb-
.	.	8G	8g	8g	8gg
.	.	8E-	8e-	8e-	8ee-
.	.	8BB-	8B-	8B-	8b-
.	.	8E-	8e-	8e-	8ee-
.	.	8BB-	8B-	8B-	8b-
=186	=186	=186	=186	=186	=186
.	.	8E-	8e-	8e-	8ee-
.	.	8BB-	8B-	8B-	8b-
.	.	8E-	8e-	8e-	8ee-
.	.	8BB-	8B-	8B-	8b-
.	.	8E-	4e-	8e-	8ee-
.	.	8BB-	.	8B-	8b-
.	.	8E-	4e-	4b-	8ee-
.	.	8F	.	.	8dd
=187	=187	=187	=187	=187	=187
iv7/i	A7b5b9/G	[1G	[1e-	[1b-	[1cc#
=188	=188	=188	=188	=188	=188
viioD7/i	F#dim7	4G]	4e-]	4b-]	4cc#]
.	.	4G	4e-	4b-	4cc#
.	.	4G	4e-	4b-	4cc#
.	.	4G	4e-	4b-	4cc#
=189	=189	=189	=189	=189	=189
.	.	[1G	[1e-	[1b-	[1cc#
=190	=190	=190	=190	=190	=190
.	.	4G]	4e-]	4b-]	4cc#]
.	.	4G	4e-	4b-	4cc#
.	.	4G	4e-	4b-	4cc#
.	.	4G	4e-	4b-	4cc#
=191	=191	=191	=191	=191	=191
v7/i	D7/F#	[1F#	1e-	[1a	[1cc
=192	=192	=192	=192	=192	=192
.	.	4F#]	4d	4a]	4cc]
.	.	4F#	4d	4a	4cc
.	.	4F#	4d	4a	4cc
.	.	4F#	4d	4a	4cc
=193	=193	=193	=193	=193	=193
I	G	2G	2d	2g	2b
ii	Am/C	2C	2c	2e	8a
.	.	.	.	.	8b
.	.	.	.	.	8cc
.	.	.	.	.	8a
=194	=194	=194	=194	=194	=194
I	G	1D	2B	2d	2g
.	.	.	2A	2c	8f#
.	.	.	.	.	8g
.	.	.	.	.	8a
.	.	.	.	.	8f#
=195	=195	=195	=195	=195	=195
.	.	4GG	8G	8B	2g
.	.	.	8D	8d	.
.	.	2.r	8G	8B	.
.	.	.	8D	8d	.
.	.	.	8G	8B	4r
.	.	.	8D	8d	.
.	.	.	8G	8B	8dd
.	.	.	8D	8d	8b
=196	=196	=196	=196	=196	=196
V	D7/G	4GG	8F#	8c	4a
.	.	.	8D	8d	.
.	.	2.r	8F#	8c	8a
.	.	.	8D	8d	8cc
.	.	.	8F#	8c	4ee
.	.	.	8D	8d	.
.	.	.	8F#	8c	8ee
.	.	.	8D	8d	8dd
=197	=197	=197	=197	=197	=197
I	G	4GG	8G	8B	2dd
.	.	.	8D	8d	.
.	.	2.r	8G	8B	.
.	.	.	8D	8d	.
.	.	.	8G	8B	4gg
.	.	.	8D	8d	.
.	.	.	8G	8B	8dd
.	.	.	8D	8d	8b
=198	=198	=198	=198	=198	=198
V	D7/G	4GG	8F#	8c	4a
.	.	.	8D	8d	.
.	.	2.r	8F#	8c	8a
.	.	.	8D	8d	8b
.	.	.	8F#	8c	8cc
.	.	.	8D	8d	8b
.	.	.	8F#	8c	8cc
.	.	.	8D	8d	8a
=199	=199	=199	=199	=199	=199
I	G	4GG	8G	8B	2g
.	.	.	8D	8d	.
.	.	2.r	8G	8B	.
.	.	.	8D	8d	.
.	.	.	8G	8B	4d
.	.	.	8D	8d	.
.	.	.	8G	8B	8dd
.	.	.	8D	8d	8b
=200	=200	=200	=200	=200	=200
V	D7/G	4GG	8F#	8c	4a
.	.	.	8D	8d	.
.	.	2.r	8F#	8c	8a
.	.	.	8D	8d	8cc
.	.	.	8F#	8c	4ee
.	.	.	8D	8d	.
.	.	.	8F#	8c	8ee
.	.	.	8D	8d	8dd
=201	=201	=201	=201	=201	=201
I	G	4GG	8G	8B	2dd
.	.	.	8D	8d	.
.	.	2.r	8G	8B	.
.	.	.	8D	8d	.
.	.	.	4G	4B	4gg
.	.	.	4f#	4cc	8ee
.	.	.	.	.	8dd
=202	=202	=202	=202	=202	=202
.	.	1r	4g	4b	4dd
.	.	.	4f#	4cc	8ee
.	.	.	.	.	8dd
.	.	.	4g	4b	4dd
.	.	.	4f#	4cc	8ee
.	.	.	.	.	8dd
=203	=203	=203	=203	=203	=203
V7	D7/F#	1r	2g	2b	2dd
.	.	.	4r	4r	4gg
.	.	.	4f#	4cc	8ee
.	.	.	.	.	8dd
=204	=204	=204	=204	=204	=204
.	.	1r	4g	4b	4dd
.	.	.	4f#	4cc	8ee
.	.	.	.	.	8dd
.	.	.	4g	4b	4dd
VI7	E7	.	4g#	4dd	8ff
.	.	.	.	.	8ee
=205	=205	=205	=205	=205	=205
ii	Am/G#	2.r	4a	4cc	4ee
.	.	.	4g#	4dd	8ff
.	.	.	.	.	8ee
.	.	.	4a	4cc	4ee
.	E7/G#	8d	8f	8b	8gg#
.	.	8c	8e	8cc	8aa
=206	=206	=206	=206	=206	=206
ii	Am	4c	4e	4cc	4aa
.	.	8B	8d	8dd	8bb
.	.	8A	8c	8ee	8ccc
.	.	4A	4c	4ee	4ccc
viioD7	F#dim7	8c	8e-	8a	8ff#
.	.	8B	8d	8b	8gg
=207	=207	=207	=207	=207	=207
I	G	4B	4d	4b	4gg
.	.	8A	8c	8cc	8aa
.	.	8G	8B	8dd	8bb
.	.	4G	4B	4dd	4bb
.	.	4r	8G	4b	8ddd
.	.	.	8g	.	8bb
=208	=208	=208	=208	=208	=208
V7	D7	4G	8f#	8cc	4aa
.	.	.	8d	8d	.
.	.	2.r	8f#	8cc	8aa
.	.	.	8d	8d	8ccc
.	.	.	8f#	8cc	4eee
.	.	.	8d	8d	.
.	.	.	8f#	8cc	8eee
.	.	.	8d	8d	8ddd
=209	=209	=209	=209	=209	=209
I	G	4G	8g	8b	2ddd
.	.	.	8d	8d	.
.	.	2.r	8g	8b	.
.	.	.	8d	8d	.
.	.	.	8g	8b	4ggg
.	.	.	8d	8d	.
.	.	.	8g	8b	8ddd
.	.	.	8d	8d	8bb
=210	=210	=210	=210	=210	=210
V7	D7	4G	8f#	8cc	4aa
.	.	.	8d	8d	.
.	.	2.r	8f#	8cc	8aa
.	.	.	8d	8d	8bb
.	.	.	8f#	8cc	8ccc
.	.	.	8d	8d	8bb
.	.	.	8f#	8cc	8ccc
.	.	.	8d	8d	8aa
=211	=211	=211	=211	=211	=211
I	G	4G	8g	8b	2gg
.	.	.	8d	8d	.
.	.	2.r	8g	8b	.
.	.	.	8d	8d	.
.	.	.	8g	8b	4dd
.	.	.	8d	8d	.
.	.	.	8g	8b	8ddd
.	.	.	8d	8d	8bb
=212	=212	=212	=212	=212	=212
V7	D7	2GG	8f#	8cc	4aa
.	.	.	8d	8d	.
.	.	.	8f#	8cc	8aa
.	.	.	8d	8d	8ccc
.	.	2r	8f#	8cc	4eee
.	.	.	8d	8d	.
.	.	.	8f#	8cc	8eee
.	.	.	8d	8d	8ddd
=213	=213	=213	=213	=213	=213
I	G	2GG	8g	8b	2ddd
.	.	.	8d	8d	.
.	.	.	8g	8b	.
.	.	.	8d	8d	.
.	.	2r	8g	8b	4ggg
.	.	.	8d	8d	.
.	.	.	8g	8b	8ddd
.	.	.	8d	8d	8bb
=214	=214	=214	=214	=214	=214
V7	D7	2GG	8f#	8cc	4aa
.	.	.	8d	8d	.
.	.	.	8f#	8cc	8aa
.	.	.	8d	8d	8bb
.	.	2r	8f#	8cc	8ccc
.	.	.	8d	8d	8bb
.	.	.	8f#	8cc	8ccc
.	.	.	8d	8d	8aa
=215	=215	=215	=215	=215	=215
I	G	2GG	4g	4b	8bb
.	.	.	.	.	8gg
.	.	.	2r	2r	8bb
.	.	.	.	.	8ddd
.	.	4r	.	.	8ggg
.	.	.	.	.	8gg
.	.	4d	4f	4bb	8bb
.	.	.	.	.	8ddd
=216	=216	=216	=216	=216	=216
I#oD7	G#dim7	4B	4d	4gg#	4fff
ii	Am/C	4c	4e	4aa	4eee
viioD7	F#dim/A	4A	4c	4ff#	4eee-
I	G/B	4B	4d	[4gg	4ddd
=217	=217	=217	=217	=217	=217
ii7	Am7	2c	2e	4gg]	4ddd
.	.	.	.	4aa	4ccc
V7	D7	2d	4d	4gg	4bb
.	.	.	4c	4ff#	4aa
=218	=218	=218	=218	=218	=218
I	G	4G	4B	4gg	8gg
.	.	.	.	.	8g
.	.	2r	2r	2r	8b
.	.	.	.	.	8dd
.	.	.	.	.	8gg
.	.	.	.	.	8g
.	.	4d	4f	4g	8b
.	.	.	.	.	8dd
=219	=219	=219	=219	=219	=219
I#oD7	G#dim7	4B	4d	4g#	4ff
ii	Am/C	4c	2e	4a	4ee
ivoD7	C#dim	4c#	.	4b-	4gg
V	D	4d	[4f#	4a	4ff#
=220	=220	=220	=220	=220	=220
v#oD7	D#dim/A	4d#	4f#]	4cc	4aa
vi	Em	4e	4g	4b	4gg
V7	D7/F#	4f#	4a	4dd	4ccc
I	G	4g	4b	4dd	4bb
=221	=221	=221	=221	=221	=221
ii	Am	2c	2a	2e	2eee
.	.	2r	2r	2r	2r
=222	=222	=222	=222	=222	=222
V7	D7	2d	2d	2cc	2ff# 2a
.	.	2r	2r	2r	2r
=223	=223	=223	=223	=223	=223
I	G	2G	4g	4b	8gg
.	.	.	.	.	8dd
.	.	.	4r	4r	8b
.	.	.	.	.	8g
V	D	2r	4f#	8dd	4aa
.	.	.	.	8a	.
.	.	.	4r	8f#	4r
.	.	.	.	8d	.
=224	=224	=224	=224	=224	=224
I	G	2r	8g	4g	4bb
.	.	.	8d	.	.
.	.	.	8B	4r	4r
.	.	.	8G	.	.
V7	D7	8D	4D	4cc 4ff#	4ddd 4dd
.	.	8AA	.	.	.
.	.	8FF#	4r	4r	4r
.	.	8DD	.	.	.
=225	=225	=225	=225	=225	=225
I	G	4GG	4G	4gg 4d 4b	4bb 4dd
.	.	2.r	2.r	2.r	2.r
==	==	==	==	==	==
*-	*-	*-	*-	*-	*-
!!!RWG1: This file contains only pitch and duration data.
!!!RWG2: Transposing instruments are not transposed.
!!!RWG3: Spines may have incompatible meters.
!!!RWG4: Durations of rests and tied notes may be interpreted.
!!!RWG: Key is interpreted using the Humdrum key tool.
!!!GTL: 6 Quartetti ("Erd�dy")
!!!AFT: stage1
!!!END: 1997/04/15
!!!KEY: 3437842079
!!!EMD: Converted from MuseData to Humdrum Dec 16, 2000, by Andreas Kornstaedt using muse2kern.
!!!EMD: Manual editing by Craig Sapp, Nov 2001